!!!OTL: ET LEIT SEK EN BUUR
!!!ARE: Europa, Mitteleuropa, Deutschland, Bergisches Land
!!!SCT: E1717A
!!!YEM: Copyright 1995, estate of Helmut Schaffrath.
**kern
*ICvox
*Ivox
*M6/8
*k[b-]
*F:
{8f
=1
8cc
8cc
8cc
4cc
8ff
=2
4cc
8b-
4a}
{8f
=3
8cc
8cc
8cc
4cc
8ff
=4
4cc
8b-
4a}
{8cc
=5
8cc
8b-
8g
8a
8f
8cc
=6
8cc
8b-
8g
8a
8f}
{8cc
=7
8cc
8b-
8g
8a
8f
8cc
=8
8cc
8b-
8g
8a
8f}
{8f
=9
8g
8a
8g
4f
8f
=10
8g
8a
8g
8f}
{8cc
8f
=11
8g
8a
8g
4f
8f
=12
8g
8a
8g
4f}
==
!!!AGN: Spott - Lied auf betruegerische Schneider
!!!ONB: ESAC (Essen Associative Code) Database: ERK3
!!!AMT: compound duple
!!!AIN: vox
!!!EED: Helmut Schaffrath
!!!EEV: 1.0
*-
